dist/assets/img/svg/icon-wh-03.svg

<svg width="123" height="113" viewBox="0 0 123 113" fill="none" xmlns="http://www.w3.org/2000/svg">
<g id="Group 19">
<path id="Vector" d="M121.983 57.4001C120.769 49.5538 118.021 42.1937 114.093 35.6216C117.532 32.4361 119.69 27.8759 119.69 22.8462C119.69 13.206 111.8 5.35972 102.106 5.35972C96.559 5.35972 91.6023 7.94162 88.3653 11.9486C81.4024 8.51165 73.6976 6.34889 65.5545 5.7621C65.2005 5.7621 64.8633 5.41002 64.8633 5.07471V3.53227C64.8633 1.80542 63.6494 0.262987 62.0983 0.0953313C59.856 -0.424402 57.9509 1.30245 57.9509 3.36462V5.09147C57.9509 5.61121 57.5969 5.94652 57.2597 5.94652C28.5312 7.82426 5.1641 29.5189 0.999827 57.4001C0.831232 58.9425 2.55089 59.6299 3.42758 58.6072C4.30427 57.5845 5.50129 56.7127 6.71517 55.8576C12.0765 52.2363 19.3429 52.4207 24.721 56.0253C26.9633 57.5677 28.5312 59.4622 29.7451 61.5244C30.2678 62.5639 31.6502 62.5639 32.1729 61.5244C33.2182 59.4622 34.7692 57.7354 36.8429 56.3606C41.3444 53.0913 49.4706 52.7392 54.3261 55.5056C55.7086 56.3606 56.9225 57.2324 57.7823 58.2551C58.1364 58.6072 57.7823 58.9928 57.7823 59.3449C58.4904 59.7808 59.1142 60.2335 59.5694 60.77C59.7549 60.9544 59.7549 61.122 59.7549 61.3065V105.165C59.7549 107.211 58.3218 109.155 56.1807 109.424C53.5843 109.86 51.2746 107.915 51.1734 105.333C51.1734 104.444 50.5496 103.64 49.6561 103.472C48.5771 103.287 47.6835 104.176 47.6835 105.249C47.6835 109.692 51.4432 113.246 55.9952 112.978C60.1089 112.71 63.2279 109.072 63.2279 104.981V61.2059C63.2279 61.0214 63.3122 60.8538 63.4134 60.6694C63.9529 60.1329 64.5767 59.697 65.2848 59.2443H65.2511C65.2511 58.909 65.0487 58.4228 65.2173 58.0707C66.2626 57.0312 67.4596 56.1762 68.859 55.3211C74.2203 52.2195 81.1495 52.5716 86.3422 56.3606C88.4159 57.7354 89.9838 59.6299 91.0122 61.5244C91.5349 62.5639 92.9174 62.5639 93.44 61.5244C94.6539 59.2946 96.559 57.2157 99.1553 55.6732C103.994 52.7392 110.063 52.5716 115.071 55.1535C116.807 56.193 118.358 57.3833 119.572 58.5904C120.432 59.6299 122.168 58.7581 122 57.3833L121.983 57.4001ZM102.123 8.62901C109.996 8.62901 116.419 14.9999 116.419 22.8462C116.419 30.6925 110.013 37.0634 102.123 37.0634C94.2324 37.0634 87.8258 30.6925 87.8258 22.8462C87.8258 14.9999 94.2324 8.62901 102.123 8.62901Z" fill="#EC8020"/>
<path id="Vector_2" d="M93.2379 25.9647L99.3747 30.8435C99.8299 31.1956 100.369 31.38 100.909 31.38C101.583 31.38 102.258 31.095 102.747 30.5585L112.559 19.5938C113.452 18.5878 113.368 17.0454 112.356 16.1568C111.345 15.2683 109.794 15.3521 108.9 16.358L100.639 25.5959L96.3232 22.1589C95.261 21.3206 93.7268 21.4883 92.8839 22.5445C92.0409 23.6007 92.2095 25.1264 93.2716 25.9647H93.2379Z" fill="#EC8020"/>
</g>
</svg>

<svg width="123" height="113" fill="none" xmlns="http://www.w3.org/2000/svg"><g fill="#EC8020"><path d="M121.983 57.4c-1.214-7.846-3.962-15.206-7.89-21.778 3.439-3.186 5.597-7.746 5.597-12.776 0-9.64-7.89-17.486-17.584-17.486-5.547 0-10.504 2.582-13.74 6.589a61.42 61.42 0 00-22.811-6.187c-.355 0-.692-.352-.692-.687V3.532c0-1.727-1.214-3.269-2.765-3.437-2.242-.52-4.147 1.207-4.147 3.27V5.09c0 .52-.354.856-.691.856C28.53 7.824 5.164 29.519 1 57.4c-.169 1.543 1.55 2.23 2.428 1.207.876-1.023 2.073-1.894 3.287-2.75 5.361-3.62 12.628-3.436 18.006.168 2.242 1.543 3.81 3.437 5.024 5.5.523 1.039 1.905 1.039 2.428 0 1.045-2.063 2.596-3.79 4.67-5.164 4.501-3.27 12.628-3.622 17.483-.855 1.383.855 2.596 1.726 3.456 2.75.354.351 0 .737 0 1.089.708.436 1.332.889 1.787 1.425.186.184.186.352.186.536v43.859c0 2.046-1.433 3.99-3.574 4.259-2.597.436-4.906-1.509-5.008-4.091 0-.889-.623-1.693-1.517-1.861-1.079-.185-1.972.704-1.972 1.777 0 4.443 3.76 7.997 8.311 7.729 4.114-.268 7.233-3.906 7.233-7.997V61.206c0-.185.084-.352.185-.537.54-.536 1.164-.972 1.872-1.425h-.034c0-.335-.202-.821-.034-1.173 1.046-1.04 2.243-1.895 3.642-2.75 5.361-3.102 12.29-2.75 17.483 1.04 2.074 1.374 3.642 3.269 4.67 5.163.523 1.04 1.905 1.04 2.428 0 1.214-2.23 3.119-4.308 5.715-5.85 4.839-2.935 10.908-3.102 15.916-.52 1.736 1.039 3.287 2.23 4.501 3.436.86 1.04 2.596.168 2.428-1.207l-.017.017zm-19.86-48.77c7.873 0 14.296 6.37 14.296 14.217 0 7.846-6.406 14.217-14.296 14.217s-14.297-6.37-14.297-14.217c0-7.846 6.406-14.217 14.297-14.217z"/><path d="M93.238 25.965l6.137 4.878a2.51 2.51 0 001.534.537c.674 0 1.349-.285 1.838-.822l9.812-10.964a2.428 2.428 0 00-.203-3.437c-1.011-.889-2.562-.805-3.456.201l-8.261 9.238-4.316-3.437a2.451 2.451 0 00-3.44.386 2.42 2.42 0 00.389 3.42h-.034z"/></g></svg>62.5639 92.9174 62.5639 93.44 61.5244C94.6539 59.2946 96.559 57.2157 99.1553 55.6732C103.994 52.7392 110.063 52.5716 115.071 55.1535C116.807 56.193 118.358 57.3833 119.572 58.5904C120.432 59.6299 122.168 58.7581 122 57.3833L121.983 57.4001ZM102.123 8.62901C109.996 8.62901 116.419 14.9999 116.419 22.8462C116.419 30.6925 110.013 37.0634 102.123 37.0634C94.2324 37.0634 87.8258 30.6925 87.8258 22.8462C87.8258 14.9999 94.2324 8.62901 102.123 8.62901Z" fill="#EC8020"/>
<path id="Vector_2" d="M93.2379 25.9647L99.3747 30.8435C99.8299 31.1956 100.369 31.38 100.909 31.38C101.583 31.38 102.258 31.095 102.747 30.5585L112.559 19.5938C113.452 18.5878 113.368 17.0454 112.356 16.1568C111.345 15.2683 109.794 15.3521 108.9 16.358L100.639 25.5959L96.3232 22.1589C95.261 21.3206 93.7268 21.4883 92.8839 22.5445C92.0409 23.6007 92.2095 25.1264 93.2716 25.9647H93.2379Z" fill="#EC8020"/>
</g>
</svg>
